public/images/icons/cube.svg

<svg width="32" height="32" viewBox="0 0 32 32" fill="none" xmlns="http://www.w3.org/2000/svg">
<g clip-path="url(#clip0_16593_961)">
<path d="M16 31.25L1.962 25.234C1.60216 25.0797 1.2955 24.8233 1.08006 24.4963C0.864609 24.1694 0.749848 23.7865 0.75 23.395V7.28499L15.212 1.08799C15.461 0.981248 15.7291 0.926208 16 0.926208C16.2709 0.926208 16.539 0.981248 16.788 1.08799L31.25 7.28599L16 13.896V31.25Z" fill="#9394A0" fill-opacity="0.15"/>
<path d="M16 31.25L15.705 31.94C15.8191 31.9888 15.9435 32.0085 16.0672 31.9974C16.1908 31.9863 16.3097 31.9447 16.4133 31.8763C16.5168 31.8079 16.6018 31.7149 16.6606 31.6056C16.7193 31.4963 16.7501 31.3741 16.75 31.25H16ZM0.75 7.28599L0.455 6.59599C0.319907 6.65379 0.204766 6.74999 0.123876 6.87266C0.0429864 6.99533 -8.8611e-05 7.13905 1.3686e-07 7.28599H0.75ZM31.25 7.28599L31.548 7.97399C31.6826 7.91578 31.7971 7.81939 31.8775 7.69676C31.9579 7.57413 32.0005 7.43063 32.0002 7.284C31.9999 7.13738 31.9566 6.99406 31.8757 6.87178C31.7948 6.7495 31.6798 6.65362 31.545 6.59599L31.25 7.28599ZM16.788 1.08799L16.492 1.77699L16.788 1.08699V1.08799ZM15.212 1.08799L15.508 1.77699L15.212 1.08699V1.08799ZM16.295 30.561L2.258 24.544L1.667 25.924L15.705 31.939L16.295 30.561ZM1.5 23.395V7.28499L1.3686e-07 7.28599V23.395H1.5ZM31.545 6.59599L17.083 0.39799L16.492 1.77699L30.955 7.97499L31.545 6.59599ZM14.917 0.39799L0.455 6.59599L1.045 7.97599L15.508 1.77699L14.917 0.39799ZM0.452 7.97399L15.702 14.584L16.298 13.208L1.048 6.59799L0.452 7.97399ZM16.298 14.584L31.548 7.97399L30.952 6.59799L15.702 13.208L16.298 14.585V14.584ZM15.25 13.896V31.25H16.75V13.896H15.25ZM17.083 0.39799C16.7408 0.251363 16.3723 0.176758 16 0.176758C15.6277 0.176758 15.2592 0.251363 14.917 0.39799L15.507 1.77799C15.6626 1.71128 15.8302 1.67688 15.9995 1.67688C16.1688 1.67688 16.3364 1.71128 16.492 1.77799L17.083 0.39799ZM2.258 24.544C2.03306 24.4477 1.84134 24.2875 1.7066 24.0832C1.57185 23.879 1.50002 23.6397 1.5 23.395H1.3686e-07C1.3686e-07 24.495 0.656 25.491 1.667 25.924L2.258 24.544Z" fill="#9394A0"/>
<path d="M31.25 7.28101V23.391C31.25 23.7823 31.1351 24.1651 30.9197 24.4918C30.7042 24.8185 30.3977 25.0748 30.038 25.229L16 31.246" stroke="#9394A0" stroke-width="1.5" stroke-linecap="round" stroke-linejoin="round"/>
</g>
<defs>
<clipPath id="clip0_16593_961">
<rect width="32" height="32" fill="white"/>
</clipPath>
</defs>
</svg>

<svg xmlns="http://www.w3.org/2000/svg" width="32" height="32" fill="none"><g clip-path="url(#a)"><path fill="#9394a0" fill-opacity=".15" d="M16 31.25 1.962 25.234A2 2 0 0 1 .75 23.395V7.285l14.462-6.197a2 2 0 0 1 1.576 0L31.25 7.286 16 13.896z"/><path fill="#9394a0" d="m16 31.25-.295.69a.75.75 0 0 0 1.045-.69zM.75 7.286l-.295-.69a.75.75 0 0 0-.455.69zm30.5 0 .298.688a.75.75 0 0 0-.003-1.378zM16.788 1.088l-.296.689zm-1.576 0 .296.689zm1.083 29.473L2.258 24.544l-.591 1.38 14.038 6.015zM1.5 23.395V7.285L0 7.286v16.109zM31.545 6.596 17.083.398l-.591 1.379 14.463 6.198zM14.917.398.455 6.596l.59 1.38 14.463-6.199zM.452 7.974l15.25 6.61.596-1.376-15.25-6.61zm15.846 6.61 15.25-6.61-.596-1.376-15.25 6.61zm-1.048-.688V31.25h1.5V13.896zM17.083.398a2.75 2.75 0 0 0-2.166 0l.59 1.38a1.25 1.25 0 0 1 .985 0zM2.258 24.544a1.25 1.25 0 0 1-.758-1.149H0c0 1.1.656 2.096 1.667 2.529z"/><path stroke="#9394a0" stroke-linecap="round" stroke-linejoin="round" stroke-width="1.5" d="M31.25 7.281v16.11a2 2 0 0 1-1.212 1.838L16 31.246"/></g><defs><clipPath id="a"><path fill="#fff" d="M0 0h32v32H0z"/></clipPath></defs></svg>
